dist/images/graphics/icons/stop.svg

<svg width="20" height="20" viewBox="0 0 20 20" fill="none" xmlns="http://www.w3.org/2000/svg">
<path d="M9.99967 0.833313C15.0413 0.833313 19.1663 4.95831 19.1663 9.99998C19.1663 15.0416 15.0413 19.1666 9.99967 19.1666C4.95801 19.1666 0.833008 15.0416 0.833008 9.99998C0.833008 4.95831 4.95801 0.833313 9.99967 0.833313ZM9.99967 2.66665C8.25801 2.66665 6.69967 3.21665 5.50801 4.22498L15.7747 14.4916C16.6913 13.2083 17.333 11.65 17.333 9.99998C17.333 5.96665 14.033 2.66665 9.99967 2.66665ZM14.4913 15.775L4.22467 5.50831C3.21634 6.69998 2.66634 8.25831 2.66634 9.99998C2.66634 14.0333 5.96634 17.3333 9.99967 17.3333C11.7413 17.3333 13.2997 16.7833 14.4913 15.775Z" fill="#FF005C"/>
</svg>

<svg width="20" height="20" fill="none" xmlns="http://www.w3.org/2000/svg"><path d="M10 .833c5.041 0 9.166 4.125 9.166 9.167S15.041 19.167 10 19.167C4.958 19.167.833 15.042.833 10S4.958.833 10 .833zm0 1.834c-1.742 0-3.3.55-4.492 1.558l10.267 10.267c.916-1.284 1.558-2.842 1.558-4.492 0-4.033-3.3-7.333-7.333-7.333zm4.491 13.108L4.225 5.508C3.216 6.7 2.666 8.258 2.666 10c0 4.033 3.3 7.333 7.334 7.333 1.741 0 3.3-.55 4.491-1.558z" fill="#FF005C"/></svg>
